components/Common/Svg/svgs/titledSwiftUI.svg

<svg
  width="70"
  height="138"
  viewBox="0 0 70 138"
  fill="none"
  xmlns="http://www.w3.org/2000/svg"
>
  <path
    d="M10.364 128.126C9.536 128.126 8.792 127.982 8.132 127.694C7.484 127.394 6.974 126.986 6.602 126.47C6.23 125.942 6.038 125.336 6.026 124.652H7.772C7.832 125.24 8.072 125.738 8.492 126.146C8.924 126.542 9.548 126.74 10.364 126.74C11.144 126.74 11.756 126.548 12.2 126.164C12.656 125.768 12.884 125.264 12.884 124.652C12.884 124.172 12.752 123.782 12.488 123.482C12.224 123.182 11.894 122.954 11.498 122.798C11.102 122.642 10.568 122.474 9.896 122.294C9.068 122.078 8.402 121.862 7.898 121.646C7.406 121.43 6.98 121.094 6.62 120.638C6.272 120.17 6.098 119.546 6.098 118.766C6.098 118.082 6.272 117.476 6.62 116.948C6.968 116.42 7.454 116.012 8.078 115.724C8.714 115.436 9.44 115.292 10.256 115.292C11.432 115.292 12.392 115.586 13.136 116.174C13.892 116.762 14.318 117.542 14.414 118.514H12.614C12.554 118.034 12.302 117.614 11.858 117.254C11.414 116.882 10.826 116.696 10.094 116.696C9.41 116.696 8.852 116.876 8.42 117.236C7.988 117.584 7.772 118.076 7.772 118.712C7.772 119.168 7.898 119.54 8.15 119.828C8.414 120.116 8.732 120.338 9.104 120.494C9.488 120.638 10.022 120.806 10.706 120.998C11.534 121.226 12.2 121.454 12.704 121.682C13.208 121.898 13.64 122.24 14 122.708C14.36 123.164 14.54 123.788 14.54 124.58C14.54 125.192 14.378 125.768 14.054 126.308C13.73 126.848 13.25 127.286 12.614 127.622C11.978 127.958 11.228 128.126 10.364 128.126ZM30.0905 118.136L27.0125 128H25.3205L22.9445 120.17L20.5685 128H18.8765L15.7805 118.136H17.4545L19.7225 126.416L22.1705 118.136H23.8445L26.2385 126.434L28.4705 118.136H30.0905ZM32.5621 116.534C32.2501 116.534 31.9861 116.426 31.7701 116.21C31.5541 115.994 31.4461 115.73 31.4461 115.418C31.4461 115.106 31.5541 114.842 31.7701 114.626C31.9861 114.41 32.2501 114.302 32.5621 114.302C32.8621 114.302 33.1141 114.41 33.3181 114.626C33.5341 114.842 33.6421 115.106 33.6421 115.418C33.6421 115.73 33.5341 115.994 33.3181 116.21C33.1141 116.426 32.8621 116.534 32.5621 116.534ZM33.3541 118.136V128H31.7161V118.136H33.3541ZM40.1598 119.486H38.0898V128H36.4518V119.486H35.1738V118.136H36.4518V117.434C36.4518 116.33 36.7338 115.526 37.2978 115.022C37.8738 114.506 38.7918 114.248 40.0518 114.248V115.616C39.3318 115.616 38.8218 115.76 38.5218 116.048C38.2338 116.324 38.0898 116.786 38.0898 117.434V118.136H40.1598V119.486ZM44.0676 119.486V125.3C44.0676 125.78 44.1696 126.122 44.3736 126.326C44.5776 126.518 44.9316 126.614 45.4356 126.614H46.6416V128H45.1656C44.2536 128 43.5696 127.79 43.1136 127.37C42.6576 126.95 42.4296 126.26 42.4296 125.3V119.486H41.1516V118.136H42.4296V115.652H44.0676V118.136H46.6416V119.486H44.0676ZM50.2282 115.454V123.392C50.2282 124.508 50.4982 125.336 51.0382 125.876C51.5902 126.416 52.3522 126.686 53.3242 126.686C54.2842 126.686 55.0342 126.416 55.5742 125.876C56.1262 125.336 56.4022 124.508 56.4022 123.392V115.454H58.0402V123.374C58.0402 124.418 57.8302 125.3 57.4102 126.02C56.9902 126.728 56.4202 127.256 55.7002 127.604C54.9922 127.952 54.1942 128.126 53.3062 128.126C52.4182 128.126 51.6142 127.952 50.8942 127.604C50.1862 127.256 49.6222 126.728 49.2022 126.02C48.7942 125.3 48.5902 124.418 48.5902 123.374V115.454H50.2282ZM62.4107 115.454V128H60.7727V115.454H62.4107Z"
    fill="#A0A0A0"
  ></path>
  <g clip-path="url(#clip0_5402_15207)">
    <path
      d="M15.5568 10H54.3303C56.217 10 58.049 10.3008 59.8264 10.9297C62.3967 11.8594 64.7209 13.5 66.4709 15.6328C68.2482 17.7656 69.424 20.3906 69.8342 23.125C69.9982 24.1367 70.0256 25.1484 70.0256 26.1602V63.9766C70.0256 65.1797 69.9709 66.4102 69.7248 67.5859C69.1779 70.293 67.8928 72.8359 66.0334 74.8867C64.2014 76.9375 61.7951 78.4688 59.1975 79.2891C57.6115 79.7812 55.9709 80 54.3029 80C53.5646 80 15.4475 80 14.8732 79.9727C12.0842 79.8359 9.32246 78.9336 6.99825 77.375C4.72871 75.8438 2.86934 73.7109 1.66621 71.25C0.627152 69.1445 0.107621 66.793 0.107621 64.4414V25.5586C0.0529331 23.2344 0.545121 20.9375 1.55684 18.8594C2.73262 16.3984 4.56465 14.2383 6.83418 12.707C9.1584 11.1211 11.8928 10.1914 14.6818 10.0547C14.9553 10 15.2561 10 15.5568 10Z"
      fill="#7C7C7C"
    ></path>
    <path
      d="M59.0625 67.2578C58.8164 66.875 58.543 66.4922 58.2422 66.1367C57.5586 65.3164 56.7656 64.6055 55.8906 64.0039C54.7969 63.2656 53.5117 62.8008 52.1992 62.7461C51.2695 62.6914 50.3398 62.8555 49.4648 63.1836C48.5898 63.4844 47.7422 63.9219 46.9219 64.3594C45.9648 64.8516 45.0078 65.3438 43.9961 65.7539C42.793 66.2461 41.5352 66.6289 40.25 66.9023C38.6367 67.2031 36.9961 67.3125 35.3828 67.2852C32.457 67.2305 29.5312 66.793 26.7422 65.9727C24.2812 65.2344 21.9297 64.2227 19.7148 62.9375C17.7734 61.8164 15.9688 60.5312 14.2734 59.082C12.8789 57.8789 11.5938 56.5938 10.3906 55.2266C9.57031 54.2695 8.77734 53.2578 8.03906 52.2188C7.73828 51.8086 7.46484 51.3711 7.21875 50.9336L0 43.1406V25.5039C0 16.9453 6.91797 10 15.4766 10H29.2852L39.5117 20.3906C62.5898 36.0859 55.125 53.3945 55.125 53.3945C55.125 53.3945 61.6875 60.7773 59.0625 67.2578Z"
      fill="#6A6A6A"
    ></path>
    <path
      d="M39.5644 20.3906C62.6426 36.0859 55.1777 53.3945 55.1777 53.3945C55.1777 53.3945 61.7402 60.8047 59.0879 67.2852C59.0879 67.2852 56.3809 62.7461 51.8418 62.7461C47.4668 62.7461 44.8965 67.2852 36.0918 67.2852C16.4863 67.2852 7.2168 50.9063 7.2168 50.9063C24.8809 62.5273 36.9395 54.2969 36.9395 54.2969C28.9824 49.6758 12.0566 27.582 12.0566 27.582C26.7949 40.1328 33.166 43.4414 33.166 43.4414C29.3652 40.2969 18.7012 24.9297 18.7012 24.9297C27.2324 33.5703 44.1855 45.6289 44.1855 45.6289C48.998 32.2852 39.5644 20.3906 39.5644 20.3906Z"
      fill="white"
    ></path>
  </g>
  <defs>
    <clipPath id="clip0_5402_15207">
      <rect
        width="70"
        height="70"
        fill="white"
        transform="translate(0 10)"
      ></rect>
    </clipPath>
  </defs>
</svg>

<svg width="70" height="138" viewBox="0 0 70 138" fill="none" xmlns="http://www.w3.org/2000/svg"><path d="M10.364 128.126c-.828 0-1.572-.144-2.232-.432-.648-.3-1.158-.708-1.53-1.224a3.178 3.178 0 0 1-.576-1.818h1.746c.06.588.3 1.086.72 1.494.432.396 1.056.594 1.872.594.78 0 1.392-.192 1.836-.576.456-.396.684-.9.684-1.512 0-.48-.132-.87-.396-1.17a2.53 2.53 0 0 0-.99-.684c-.396-.156-.93-.324-1.602-.504-.828-.216-1.494-.432-1.998-.648a3.318 3.318 0 0 1-1.278-1.008c-.348-.468-.522-1.092-.522-1.872 0-.684.174-1.29.522-1.818.348-.528.834-.936 1.458-1.224.636-.288 1.362-.432 2.178-.432 1.176 0 2.136.294 2.88.882.756.588 1.182 1.368 1.278 2.34h-1.8c-.06-.48-.312-.9-.756-1.26-.444-.372-1.032-.558-1.764-.558-.684 0-1.242.18-1.674.54-.432.348-.648.84-.648 1.476 0 .456.126.828.378 1.116.264.288.582.51.954.666.384.144.918.312 1.602.504.828.228 1.494.456 1.998.684.504.216.936.558 1.296 1.026.36.456.54 1.08.54 1.872 0 .612-.162 1.188-.486 1.728-.324.54-.804.978-1.44 1.314-.636.336-1.386.504-2.25.504Zm19.726-9.99L27.012 128H25.32l-2.375-7.83-2.377 7.83h-1.692l-3.096-9.864h1.675l2.268 8.28 2.448-8.28h1.674l2.393 8.298 2.233-8.298h1.62Zm2.472-1.602c-.312 0-.576-.108-.792-.324a1.077 1.077 0 0 1-.324-.792c0-.312.108-.576.324-.792.216-.216.48-.324.792-.324.3 0 .552.108.756.324.216.216.324.48.324.792 0 .312-.108.576-.324.792a.998.998 0 0 1-.756.324Zm.792 1.602V128h-1.638v-9.864h1.638Zm6.806 1.35h-2.07V128h-1.638v-8.514h-1.278v-1.35h1.278v-.702c0-1.104.282-1.908.846-2.412.576-.516 1.494-.774 2.754-.774v1.368c-.72 0-1.23.144-1.53.432-.288.276-.432.738-.432 1.386v.702h2.07v1.35Zm3.908 0v5.814c0 .48.102.822.306 1.026.204.192.558.288 1.062.288h1.206V128h-1.476c-.912 0-1.596-.21-2.052-.63-.456-.42-.684-1.11-.684-2.07v-5.814h-1.278v-1.35h1.278v-2.484h1.638v2.484h2.574v1.35h-2.574Zm6.16-4.032v7.938c0 1.116.27 1.944.81 2.484.552.54 1.314.81 2.286.81.96 0 1.71-.27 2.25-.81.552-.54.828-1.368.828-2.484v-7.938h1.638v7.92c0 1.044-.21 1.926-.63 2.646a3.958 3.958 0 0 1-1.71 1.584c-.708.348-1.506.522-2.394.522-.888 0-1.692-.174-2.412-.522a3.981 3.981 0 0 1-1.692-1.584c-.408-.72-.612-1.602-.612-2.646v-7.92h1.638Zm12.183 0V128h-1.638v-12.546h1.638Z" fill="#A0A0A0"/><g clip-path="url(#a)"><path d="M15.557 10H54.33c1.887 0 3.719.3 5.496.93 2.57.93 4.895 2.57 6.645 4.703a15.332 15.332 0 0 1 3.363 7.492c.164 1.012.192 2.023.192 3.035v37.817c0 1.203-.055 2.433-.301 3.609a15.478 15.478 0 0 1-3.692 7.3 15.48 15.48 0 0 1-6.836 4.403c-1.586.492-3.226.711-4.894.711-.738 0-38.855 0-39.43-.027a15.604 15.604 0 0 1-7.875-2.598 15.803 15.803 0 0 1-5.332-6.125C.627 69.144.108 66.793.108 64.441V25.56a14.515 14.515 0 0 1 1.449-6.7c1.176-2.46 3.008-4.62 5.277-6.152a15.316 15.316 0 0 1 7.848-2.652c.273-.055.574-.055.875-.055Z" fill="#7C7C7C"/><path d="M59.063 67.258c-.247-.383-.52-.766-.82-1.121a11.616 11.616 0 0 0-2.352-2.133c-1.094-.738-2.38-1.203-3.692-1.258-.93-.055-1.86.11-2.734.438-.875.3-1.723.738-2.543 1.175-.957.493-1.914.985-2.926 1.395-1.203.492-2.46.875-3.746 1.148-1.613.301-3.254.41-4.867.383a32.894 32.894 0 0 1-8.64-1.312 32.685 32.685 0 0 1-7.028-3.035 36.24 36.24 0 0 1-5.442-3.856 39.77 39.77 0 0 1-3.882-3.855 42.253 42.253 0 0 1-2.352-3.008c-.3-.41-.574-.848-.82-1.285L0 43.14V25.504C0 16.945 6.918 10 15.477 10h13.808l10.227 10.39C62.59 36.087 55.125 53.396 55.125 53.396s6.563 7.382 3.938 13.863Z" fill="#6A6A6A"/><path d="M39.564 20.39c23.079 15.696 15.614 33.005 15.614 33.005s6.562 7.41 3.91 13.89c0 0-2.707-4.539-7.246-4.539-4.375 0-6.945 4.54-15.75 4.54-19.606 0-28.875-16.38-28.875-16.38 17.664 11.621 29.723 3.39 29.723 3.39-7.958-4.62-24.883-26.714-24.883-26.714 14.738 12.55 21.109 15.86 21.109 15.86-3.8-3.145-14.465-18.512-14.465-18.512 8.531 8.64 25.484 20.699 25.484 20.699 4.813-13.344-4.62-25.238-4.62-25.238Z" fill="#fff"/></g><defs><clipPath id="a"><path fill="#fff" transform="translate(0 10)" d="M0 0h70v70H0z"/></clipPath></defs></svg>
